X:1
T:Title
%%score 1 2
L:1/8
M:4/2
K:F
V:1 treble-8 nm="Part_1"
V:2 bass nm="Part_2"
V:1
 F4 F2 F2 B3 B A2 c2 | B2 B2 A/G/A/B/ c3 B/A/ G2 FcAF | c2 Ac AF c2 A2 dd/d/ dd/c/BB | %3
w: Lau- da- te Do- mi- num in|sanc- tis e- * * * * * * * ius Lau- da- te|e- um lau- da- te e- um in fir- ma- men- to vir- tu- tis|
 A2 G2 z4 z cAF G2 Fc/B/ | AG/F/ G2 F4 z2 z d/c/ BA/G/ A2 | G4 z GGG c2 =B2 z c A/_B/A/G/ | %6
w: e- ius Lau- da- te e- um in vir-|tu- ti- bus e- ius in vir- tu- ti- bus e-|ius Lau- da- te e- um se- cun- dum mul- ti|
[M:2/2] A>AAA/A/ AG/F/ G2 | Ff d/e/d/c/ d>ddd/d/ |[M:4/2] dc/B/ c2 B4 z4 z2 z F | %9
w: tu- di- nem ma- gni- tu- di- nis e-|ius se- cun- dum mul- ti- tu- di- nem ma- gni-|tu- di- nis e- ius Lau-|
[M:3/2] FFBB/A/ G B2 A BBdB |[M:4/2] dB/B/ c3 G G2 F4 z4 | z8 G2 GG c2 AA/G/ | %12
w: da- te e- um in so- no tu- be in so- no|tu- be in so- no tu- be|Lau- da- te e- um in psal-|
 F/E/F/G<AA/ GGcA/A/ dB/B/_ed c4 | Bdc>c BA G2 F4 z4 | z4 c4 ^c2 c2 d4- | d2 c2 B4 AcAF/A/ G>G F2 | %16
w: te- ri- o et ci- tha- ra Lau- da- te Lau- da- te Lau- da- te e-|um in tym- pa- no et cho- ro|Lau- da- te e\--|* * * um in chor- dis et or- ga- no|
 z4 z dBG/B/ A>AGB Bd c2 | B/d/f/e/ d/c/B/c/ d>d c2 z4 d4- |[M:7/2] d2 cB c3 c B4 z4 A6 GF G3 G | %19
w: in chor- dis * et\-or- ga no Lau- da- te e-|um in cym- ba- lis be- ne so- nan- ti- bus be-|* ne so- nan- ti- bus be- ne so- nan- ti-|
[M:4/2] Fcdc BA/A<GG/ FA/B/cd c2 B2 |[M:12/2] d8 c4 B6 B2 A4 G8 _A4 G8 G4 | %21
w: bu Lau- da- te e- um in cym- ba- lis iu- bi- la- ti- o- nis|om- nis Tpi- ri- tus Lau- det Do- mi-|
[M:7/2] F4 z4 B6 A2 G2 G2 F8 |] %22
w: num Lau- det Do- mi- num|
V:2
 F,,4 B,,2 A,,2 B,,3 B,, F,,2 C,2 | G,,2 B,,2 F,3 E,/D,/ C,4 F,,4 | %2
 F,,4 F,,4 F,,2 B,,B,,/B,,/B,,B,,/F,,/ G,,2 | D,2 G,,G,E,C, G,,2 C,2 F,,2 C,2 F,,2 | %4
 F,,2 C,2 F,,F,/E,/D,C,/B,,/ F,2 B,,2 G,,2 D,2 | G,,G,,G,,G,, C,4 A,,2 G,,2 C,C, F,,2 | %6
[M:2/2] F,,4 F,E,/D,/ C,2 | F,,2 B,,2 B,,>B,,B,,B,,/B,,/ | %8
[M:4/2] B,,A,,/G,,/ F,,2 B,,B,,B,,B,, _E,E,/D,/C,B,, F,4 |[M:3/2] B,,2 B,,2 _E,B,, F,,2 B,,2 B,,2 | %10
[M:4/2] B,,2 F,,2 C,4 F,,4 C,2 C,C, | F,2 D,D,/C,/B,,/A,,/B,,/C,/ D,>D, C,4 A,,2 F,,2 | %12
 B,,2 F,,2 C,2 F,,2 B,,G,,C,B,, F,,4 | B,,2 F,,2 B,,F,, C,2 F,,F,, B,,>A,,B,,F,, C,2 | %14
 F,,4 C,4 A,,2 A,,2 D,2 C,2 | B,,2 A,,2 G,,4 F,,4 C,2 F,,F, | %16
 D,B,,/D,/ C,>C,F,,B,, G,,2 D,2 G,,2 B,,2 F,,2 | B,,4 B,,2 F,,2 B,,6 A,,G,, | %18
[M:7/2] F,,8 B,,4 F,6 E,D, C,8 |[M:4/2] F,,2 B,,A,,G,,F,, C,2 F,,3 B,, F,,2 B,,2 | %20
[M:12/2] B,,8 F,,4 G,,6 B,,2 F,,4 C,8 B,,4 C,8 C,4 |[M:7/2] F,,4 B,,8 C,8 F,,8 |] %22

